icons/Suru/scalable/categories/emoji-body-symbolic.svg

<?xml version="1.0" encoding="UTF-8"?>
<svg id="svg4" width="16" height="16" version="1.1" xmlns="http://www.w3.org/2000/svg" xmlns:cc="http://creativecommons.org/ns#" xmlns:dc="http://purl.org/dc/elements/1.1/" xmlns:rdf="http://www.w3.org/1999/02/22-rdf-syntax-ns#">
 <metadata id="metadata10">
  <rdf:RDF>
   <cc:Work rdf:about="">
    <dc:format>image/svg+xml</dc:format>
    <dc:type rdf:resource="http://purl.org/dc/dcmitype/StillImage"/>
    <dc:title/>
   </cc:Work>
  </rdf:RDF>
 </metadata>
 <rect id="rect847" x="11.5" y="8" width="2" height="1" fill="#808080" fill-rule="evenodd" stroke-linecap="square" stroke-linejoin="round" stroke-width=".75"/>
 <rect id="rect849" x="10.5" y="10" width="2.5" height="1" fill="#808080" fill-rule="evenodd" stroke-linecap="square" stroke-linejoin="round" stroke-width=".75"/>
 <rect id="rect851" x="10.5" y="12" width="2.5" height="1" fill="#808080" fill-rule="evenodd" stroke-linecap="square" stroke-linejoin="round" stroke-width=".75"/>
 <path id="path857" d="m11.5 6a1.5 1.5 0 0 0-1.5 1.5 1.5 1.5 0 0 0 1.5 1.5v-1a0.5 0.5 0 0 1-0.5-0.5 0.5 0.5 0 0 1 0.48828-0.5 0.5 0.5 0 0 1 0.011719 0v-1z" fill="#808080" fill-rule="evenodd" stroke-linecap="square" stroke-linejoin="round" stroke-width=".75"/>
 <path id="path868" d="m10.5 8a1.5 1.5 0 0 0-1.5 1.5 1.5 1.5 0 0 0 1.5 1.5v-1a0.5 0.5 0 0 1-0.5-0.5 0.5 0.5 0 0 1 0.48828-0.5 0.5 0.5 0 0 1 0.01172 0z" fill="#808080" fill-rule="evenodd" stroke-linecap="square" stroke-linejoin="round" stroke-width=".75"/>
 <path id="path870" d="m10 10a1.5 1.5 0 0 0-1.5 1.5 1.5 1.5 0 0 0 1.5 1.5v-1a0.5 0.5 0 0 1-0.5-0.5 0.5 0.5 0 0 1 0.48828-0.5 0.5 0.5 0 0 1 0.01172 0z" fill="#808080" fill-rule="evenodd" stroke-linecap="square" stroke-linejoin="round" stroke-width=".75"/>
 <rect id="rect872" x="10" y="8.5" width="2" height=".5" fill="#808080" fill-rule="evenodd" stroke-linecap="square" stroke-linejoin="round" stroke-width=".75"/>
 <path id="path874" d="m9.5 12a1.5 1.5 0 0 0-1.5 1.5 1.5 1.5 0 0 0 1.5 1.5v-1a0.5 0.5 0 0 1-0.5-0.5 0.5 0.5 0 0 1 0.48828-0.5 0.5 0.5 0 0 1 0.01172 0z" fill="#808080" fill-rule="evenodd" stroke-linecap="square" stroke-linejoin="round" stroke-width=".75"/>
 <rect id="rect876" x="10" y="10.5" width="1" height=".5" fill="#808080" fill-rule="evenodd" stroke-linecap="square" stroke-linejoin="round" stroke-width=".75"/>
 <rect id="rect878" x="10" y="12" width="1" height="1" fill="#808080" fill-rule="evenodd" stroke-linecap="square" stroke-linejoin="round" stroke-width=".75"/>
 <rect id="rect880" x="9.5" y="12.5" width=".5" height=".5" fill="#808080" fill-rule="evenodd" stroke-linecap="square" stroke-linejoin="round" stroke-width=".75"/>
 <path id="path886" d="m7.5 1h-0.37s-0.065452 0.22443-0.10461 0.3418l-1 3c-0.46323 1.3897-0.9353 2.2965-1.5801 2.8457s-1.5094 0.8125-2.9453 0.8125h-0.5v4.5c0 0.80556 0.13006 1.4621 0.58398 1.916 0.45392 0.45392 1.1105 0.58398 1.916 0.58398h7c0.80556 0 1.5341-0.1245 2.1035-0.53125 0.56946-0.40676 0.89648-1.1076 0.89648-1.9688l-0.0039 0.0625 0.5-4c0.0026-0.020731 0.003905-0.041606 0.0039-0.0625 0-0.80556-0.13006-1.4621-0.58398-1.916-0.45392-0.45392-1.1105-0.58398-1.916-0.58398h-2.3379l0.81836-2.8633c0.17824-0.62384 0.0077872-1.2083-0.3125-1.5762-0.32029-0.36789-0.73848-0.56055-1.168-0.56055zm0.36133 1h0.63867c0.070508 0 0.29067 0.075066 0.41406 0.2168 0.12339 0.14173 0.20195 0.3088 0.10547 0.64648l-1 3.5c-0.048404 0.17036-0.019531 0.63672-0.019531 0.63672h3.5c0.69444 0 1.0379 0.11994 1.209 0.29102 0.16971 0.16971 0.28716 0.51589 0.28906 1.1992l-0.49414 3.9473c-0.0026 0.02073-0.0039 0.04161-0.0039 0.0625 0 0.63889-0.17297 0.938-0.47852 1.1562-0.30555 0.21824-0.82705 0.34375-1.5215 0.34375h-7c-0.69444 0-1.0379-0.11994-1.209-0.29102-0.17108-0.17108-0.29102-0.51454-0.29102-1.209v-3.5605c1.2896-0.068218 2.3311-0.34265 3.0938-0.99219 0.86805-0.73933 1.3954-1.8327 1.8809-3.2891z" color="#000000" color-rendering="auto" dominant-baseline="auto" fill="#808080" image-rendering="auto" shape-rendering="auto" solid-color="#000000" stop-color="#000000" style="font-feature-settings:normal;font-variant-alternates:normal;font-variant-caps:normal;font-variant-east-asian:normal;font-variant-ligatures:normal;font-variant-numeric:normal;font-variant-position:normal;font-variation-settings:normal;inline-size:0;isolation:auto;mix-blend-mode:normal;shape-margin:0;shape-padding:0;text-decoration-color:#000000;text-decoration-line:none;text-decoration-style:solid;text-indent:0;text-orientation:mixed;text-transform:none;white-space:normal"/>
</svg>

<svg xmlns="http://www.w3.org/2000/svg" height="16" width="16">
    <rect width="2" height="1" x="11.5" y="8" fill="gray" fill-rule="evenodd"/>
    <rect width="2.5" height="1" x="10.5" y="10" fill="gray" fill-rule="evenodd"/>
    <rect width="2.5" height="1" x="10.5" y="12" fill="gray" fill-rule="evenodd"/>
    <path d="M11.5 6A1.5 1.5 0 0010 7.5 1.5 1.5 0 0011.5 9V8a.5.5 0 01-.5-.5.5.5 0 01.488-.5.5.5 0 01.012 0V6z" fill="gray" fill-rule="evenodd"/>
    <path d="M10.5 8A1.5 1.5 0 009 9.5a1.5 1.5 0 001.5 1.5v-1a.5.5 0 01-.5-.5.5.5 0 01.488-.5.5.5 0 01.012 0z" fill="gray" fill-rule="evenodd"/>
    <path d="M10 10a1.5 1.5 0 00-1.5 1.5A1.5 1.5 0 0010 13v-1a.5.5 0 01-.5-.5.5.5 0 01.488-.5.5.5 0 01.012 0z" fill="gray" fill-rule="evenodd"/>
    <rect width="2" height=".5" x="10" y="8.5" fill="gray" fill-rule="evenodd"/>
    <path d="M9.5 12A1.5 1.5 0 008 13.5 1.5 1.5 0 009.5 15v-1a.5.5 0 01-.5-.5.5.5 0 01.488-.5.5.5 0 01.012 0z" fill="gray" fill-rule="evenodd"/>
    <rect width="1" height=".5" x="10" y="10.5" fill="gray" fill-rule="evenodd"/>
    <rect width="1" height="1" x="10" y="12" fill="gray" fill-rule="evenodd"/>
    <rect width=".5" height=".5" x="9.5" y="12.5" fill="gray" fill-rule="evenodd"/>
    <path style="line-height:normal;font-variant-ligatures:normal;font-variant-position:normal;font-variant-caps:normal;font-variant-numeric:normal;font-variant-alternates:normal;font-variant-east-asian:normal;font-feature-settings:normal;font-variation-settings:normal;text-indent:0;text-align:start;text-decoration-line:none;text-decoration-style:solid;text-decoration-color:#000;text-transform:none;text-orientation:mixed;white-space:normal;shape-padding:0;shape-margin:0;inline-size:0;isolation:auto;mix-blend-mode:normal;solid-color:#000;solid-opacity:1" d="M7.5 1h-.37s-.065.224-.105.342l-1 3c-.463 1.39-.935 2.296-1.58 2.846C3.801 7.737 2.935 8 1.5 8H1v4.5c0 .806.13 1.462.584 1.916.454.454 1.11.584 1.916.584h7c.806 0 1.534-.124 2.104-.531.569-.407.896-1.108.896-1.969l-.004.063.5-4A.501.501 0 0014 8.5c0-.806-.13-1.462-.584-1.916C12.962 6.13 12.306 6 11.5 6H9.162l.818-2.863c.179-.624.008-1.209-.312-1.576C9.348 1.193 8.929 1 8.5 1zm.361 1H8.5c.07 0 .29.075.414.217.123.142.202.309.106.646l-1 3.5C7.97 6.533 8 7 8 7h3.5c.694 0 1.038.12 1.209.291.17.17.287.516.289 1.2l-.494 3.947a.502.502 0 00-.004.062c0 .639-.173.938-.479 1.156-.305.218-.827.344-1.521.344h-7c-.694 0-1.038-.12-1.209-.291C2.12 13.538 2 13.194 2 12.5V8.94c1.29-.069 2.331-.343 3.094-.993.868-.74 1.395-1.832 1.88-3.289z" color="#000" font-weight="400" font-family="sans-serif" overflow="visible" fill="gray"/>
</svg>
